!!!OTL: KREIS KREIS KESSEL
!!!ARE: Europa, Mitteleuropa, Deutschland, Erfurt
!!!SCT: K2074
!!!YEM: Copyright 1995, estate of Helmut Schaffrath.
**kern
*ICvox
*Ivox
*M2/4
*k[f#]
*G:
=1
{4g
4b
=2
4dd
4b}
=3
{8g
8a
8b
8cc
=4
4dd
4b}
=5
{8dd
8dd
8b
8g
=6
8ee
8ee
4dd}
=7
{8cc
8cc
8b
8b
=8
8a
8a
4g}
==
!!!AGN: Kinder - Lied, Reigen, Tanz - Spiel
!!!ONB: ESAC (Essen Associative Code) Database: KINDER
!!!AMT: simple duple
!!!AIN: vox
!!!EED: Helmut Schaffrath
!!!EEV: 1.0
*-
